blockchains/neo/logo.svg

<svg fill="none" height="250" viewBox="0 0 250 250" width="250" xmlns="http://www.w3.org/2000/svg" xmlns:xlink="http://www.w3.org/1999/xlink"><clipPath id="a"><path d="m0 0h250v250h-250z"/></clipPath><g clip-path="url(#a)"><path clip-rule="evenodd" d="m125 0c69.025 0 125 55.975 125 125s-55.975 125-125 125-125-55.975-125-125 55.975-125 125-125z" fill="#000" fill-rule="evenodd"/><path d="m52.0845 69.3311v105.5619l68.5195 24.582v-106.4191l74.129-27.322-67.277-24.0674z" fill="#00e599"/><path d="m126.214 96.0957v57.7273l68.519 24.581v-107.6603z" fill="#00af92"/></g></svg>

<svg width="250" height="250" viewBox="0 0 250 250" fill="none" xmlns="http://www.w3.org/2000/svg">
<g clip-path="url(#clip0_9_768)">
<path fill-rule="evenodd" clip-rule="evenodd" d="M125 0C194.025 0 250 55.975 250 125C250 194.025 194.025 250 125 250C55.975 250 0 194.025 0 125C0 55.975 55.975 0 125 0Z" fill="black"/>
<path d="M52.0845 69.3311V174.893L120.604 199.475V93.0559L194.733 65.7339L127.456 41.6665L52.0845 69.3311Z" fill="#00E599"/>
<path d="M126.214 96.0957V153.823L194.733 178.404V70.7437L126.214 96.0957Z" fill="#00AF92"/>
</g>
<defs>
<clipPath id="clip0_9_768">
<rect width="250" height="250" fill="white"/>
</clipPath>
</defs>
</svg>
